X: 24808
T: Maggie O' Ham
R: slide
M: 12/8
K: Gmajor
|:D|GAB d2 e d2 B A2 D|GG/A/B d2 B A3 D2 D|
GAB d2 e d2 B A^GA|B3 G3 G3- G2:|
|:d|g2 g ggg f2 f fff|ee/f/g d2 B A2 ^G A2 B|
GAB d2 e d2 B A^GA|B3 G3 G3- G2:|

